;Header Start

;FLAVOR:Marlin
;TIME:6666
;Filament used: 0m
;Layer height: 0.16
;MINX:2.14748e+06
;MINY:2.14748e+06
;MINZ:2.14748e+06
;MAXX:-2.14748e+06
;MAXY:-2.14748e+06
;MAXZ:-2.14748e+06


;header_type: 3dp
;thumbnail: data:image/png;base64,iVBORw0KGgoAAAANSUhEUgAAASwAAACWCAYAAABkW7XSAAAMkklEQVR4Xu2dWWxU5xWAj1klwBuYh7C4SGCF5SGVQAKk8BDXgHHyRk0quankVm6Emj7Vokkr8uKapBV54AmqtM5LHNWpyEMjsabwQGJbgEgtmR0MNZjdK7ZcNk91frhkPDO2546vx3NmvitZqdBdzv3Oud/8273NGhgYDAkbBCAAAQMEshCWgSwRIgQg4AggLAoBAhAwQwBhmUkVgUIAAgiLGoAABMwQQFhmUkWgEIAAwqIGIAABMwQQlplUESgEIICwqAEIQMAMAYRlJlUECgEIICxqAAIQMEMAYZlJFYFCAAIIixqAAATMEEBYZlJFoBCAAMKiBiAAATMEEJaZVBEoBCCAsKgBCEDADAGEZSZVBAoBCCAsagACEDBDAGGZSRWBQgACCIsagAAEzBBAWGZSRaAQgADCogYgAAEzBBCWmVQRKAQggLCoAQhAwAwBhGUmVQQKAQggLGoAAhAwQwBhmUkVgUIAAgiLGoAABMwQQFhmUkWgEIAAwqIGIAABMwQQlplUESgEIICwqAEIQMAMAYRlJlUECgEIICxqAAIQMEMAYZlJFYFCAAIIixqAAATMEEBYZlJFoBCAAMKiBiAAATMEEJaZVBEoBCCAsKgBCEDADAGEZSZVBAoBCCAsagACEDBDAGGZSRWBQgACCIsagAAEzBBAWGZSRaAQgADCogYgAAEzBBCWmVQRKAQggLCoAQhAwAwBhGUmVQQKAQggLGoAAhAwQwBhmUkVgUIAAgiLGoAABMwQQFhmUkWgEIAAwqIGIAABMwQQlplUESgEIICwqAEIQMAMAYRlJlUECgEIICxqAAIQMEMAYZlJFYFCAAIIixqAAATMEEBYZlJFoBCAAMKiBiAAATMEEJaZVBEoBCCAsKgBCEDADAGEFWCq2tv/K/X19VJf//mws86ePVveeecX8t57vw3waql5qu3b35UTJ05EBdfaei41AyYqUwQQVkDpamlpkdraGmlvbx92xmnTpsmaNWvktdd+LJWVvwzoaql7murq38m330YLq7n5ZOoGTWRmCCCsgFL1/fdn5Kuv9kedrb+/X4aGhmTx4sVSXb0joKul7mnq6v4m165diwqwpqY2dYMmMjMEEFZAqdKHVB/WyG1wcFCuXr0qr766XD7++M8BXS11T4OwUjc36RAZwgooiz093fLJJ7tjCqu3t9f9+6ef/j2gq6XuaRBW6uYmHSJDWAFmcefOP0ad7fHjx9LV1YWw6BIGWGmZeyqEFWDutYWlLa3w7dmzZ3L//n33T9u3/0YKCuYFeMXUO9U33xyNOYZVVfXrMYMtLPzRmPuwQ2YTQFgB5F+XMehyhqKiZZKTkxN1xjt37rh/07GsS5cuSV9fXwBXTc1TbN26VRYtWhQVXF1dnaxcudLNot6+fXvE4AsLC+XAgYNiSV66nEWXckTOEHs3qfe0YcMGU/eUmtUlgrDGkRlv3dVHH+1yZxnpYfWEdfz4cbl37944rpj6h47EYM+ePXEHv3fvPqmo+Hnc+0/2jp2dD+Stt96Us2fPvgxlxYoVbnb44sWLL//t9dc3OBmzJU4AYSXITltVKqrwX9WNGze6VkTkpl1C7RqePHkyZncpwRBS8rAghFVRUSF79/41Je8vVlAqpd27/+J+jPRHabRNW1t6b9riYvNPAGH5ZBbZqgo/fO3atbJu3TqEFaNL6KeFpQBbW8+a6UJpC+v993/v8j4wMOCkpf8dbaO15fPBe7E7wvLBTccp9NWTkcYqtHWlrazITWcJdbawtbV1WLfBx6XN7BpEC0tvNrxbqNy/+OJz6erqltzcHAmFRDo6OgJjouOO+hcKDUlHx62EzqvS6uzs9NXlp7XlHzXCioPZaK2q8MNHEpauw8rLy5PGxkbXLUznLShhhXcLy8t/KocPH3LYFi5c6P47krC0latjR6dOnYobc3Z2tuTm5sqcOXPk5s2bom8nxLvp9UKhkPsR88Yq4z3W289aF9jv/QW5P8Iag+ZYrarww3V2TB/YyE0fgBs3bsitW7fcGNZY3YUgE5ysc82YMUOmT58upaWlMWcJ/XYJNW6vW7hjR7Xs27cvWbcyKdehtRUfdoQ1Aqd4W1Xhh2u3orKyMuqM+nqOyury5cty9+5d6enpiS87o+y1YMECWbVqlZw7dy6h7pF3vM5saWzj3ebOnSsqreLiYpk/f37U6RIRltct1AFtFVa6z7AqNFpbo1ciworBR2VVVrZlxLGq0ZDGWoOkM4SjrT0aryxS6XhvPCgyJu1q+d28h/ezz+rcJ3vSvTvt8aG1NXKlIKwwNom0qvw+hOzvj4B2CwcH/+eWDTQ0NPg72PjeH3zwB9E/th8IIKwXLMbTqqKgJo6A1y3UZQMHDx5I+3VskSRpbQ0nkvHColU1cbIJ4sxet7Cx8Tv58MOdL7uFOrPnvQalrzo9fPgw6nI6o6gztzpmqGN9fic79Px6Dj1/IssodLW7DhF0d3fL+fPnfV8//IZobT2nkdHColUVhFIm/hzebGFV1a/cqy46+K4TBcuXL5esrCwnpJHGCFU6ib67qVL0xiSfPHkiV65c8X2zz9d3hWIK1e/JaG1lqLBoVfl9VCZ3//DZQl0eMnPmTNFPT0+ZMsUJy9qmAlWJ6XoxvR9dp3fmzJm4byOTW1sZ18KiVRX3c5EyO4Z3C7/8ssEtn7AsLJWVJyydQda3IHSVfFNTU9xLNzK1tZUxwqJVlTL+SSiQvr7nq88PHToox479Oy2EpbLSP+1u6lo9bXH5fX0r01pbGSEsv62qoqIityhz6tSp0tzcnNCAa0JPZZofpGNCJSUl7jUYfTBPnz4d9x1HfnJGB7J1C2IRbtxBBLpjyH0fTSXV1NToxuT0f+sWz1cfwkPJpNZWRghr06aN0tzcFGi5cbLkEFDJ6V9NzZ+kvHxbci46CVfRWVBdIOttOqOpC2UjV/er8D1RR848ZkJrKyOEtWtXrfT3P3QvtSZjkFbHJ3QgVQdU/bQiJuE5ieuSKgx9lUdnzLR1pH/J2PRlZG11PH36VIqLfyJbtpQl47KTdg3vu1rhAaiU9Htq4bOgOvOobGK9UpXur/ZkhLAaGv4hLS3/Sdqskjegqg9a+Eu72tVcv369W4+j7/BduHBh0h6OyAt73TX9qoQO/nqx6f9rdXl5+bCZOZ2dS8amssokYSlT/UyNtrS8L5XqjKg3yaB1o3+x1pzpsSqxsrI35e23f5aM9EzKNTJCWEeOHJbjx4+5MalktbD0QdMBVW1p6fodLbJkXHu8VaSy1U1bVLNmzZKCggI3oxW+lCDZwsrOzpFt27bJsmVF4709M8frq0j6/f9wYSl3bylHZC1pjrTe3nijWDZt2mzmPv0GmhHCUihtbVfl+vXrfvkkvH93d5f7OsODBw/cZ1eSJcuEAw470GvZ6APw6NEj18p55ZUFTl7z5s2T/Pz8IC4z5jny8vKdLFevXj3mvum4w9df/0uOHj3i6keXcXg1FOsHw/uBrKp6V5YuXZqOONw9ZYywJiuDtbU1buzM+3WcrDj8XDdSWJs3l7quBlvyCXR1dbpXe9ra2lxrvbdXP030fHW/t+Xn58nQUEiWLFkiJSXRX7xNftQTd0WENXFs3Zn1y5f79//T/Tomqys13ltSYenAek5OrnsISku3jPeUHA+BQAggrEAwjn0S/ZW08BbJiyGspHX7xibHHhD4gQDCohogAAEzBBCWmVQRKAQggLCoAQhAwAwBhGUmVQQKAQggLGoAAhAwQwBhmUkVgUIAAgiLGoAABMwQQFhmUkWgEIAAwqIGIAABMwQQlplUESgEIICwqAEIQMAMAYRlJlUECgEIICxqAAIQMEMAYZlJFYFCAAIIixqAAATMEEBYZlJFoBCAAMKiBiAAATMEEJaZVBEoBCCAsKgBCEDADAGEZSZVBAoBCCAsagACEDBDAGGZSRWBQgACCIsagAAEzBBAWGZSRaAQgADCogYgAAEzBBCWmVQRKAQggLCoAQhAwAwBhGUmVQQKAQggLGoAAhAwQwBhmUkVgUIAAgiLGoAABMwQQFhmUkWgEIAAwqIGIAABMwQQlplUESgEIICwqAEIQMAMAYRlJlUECgEIICxqAAIQMEMAYZlJFYFCAAIIixqAAATMEEBYZlJFoBCAAMKiBiAAATMEEJaZVBEoBCCAsKgBCEDADAGEZSZVBAoBCCAsagACEDBDAGGZSRWBQgACCIsagAAEzBBAWGZSRaAQgADCogYgAAEzBBCWmVQRKAQggLCoAQhAwAwBhGUmVQQKAQggLGoAAhAwQ+D/G79cMWHVVsoAAAAASUVORK5CYII=
;file_total_lines: 109921
;estimated_time(s): 31222.600000000002
;nozzle_temperature(°C): 205
;build_plate_temperature(°C): 70
;work_speed(mm/minute): 3000
;max_x(mm): 86.5
;max_y(mm): 57.49999999999989
;max_z(mm): 27.999999999999915
;min_x(mm): -109.9999999999997
;min_y(mm): -57.49999999999992
;min_z(mm): -1.3322676295501878e-15

;Header End

; G-code for 3dp engraving
; Generated by Snapmaker Luban 4.1.4
; Tue Feb 08 2022 0:31:5

M82 ;absolute extrusion mode
;Start GCode begin
M104 S205
M140 S70
G28 ;home
G90 ;absolute positioning
G1 X-10 Y-10 F3000
G1 Z0 F1800
M109 S205;Wait for Hotend Temperature
M190 S70;Wait for Bed Temperature
G92 E0
G1 E20 F200
G92 E0
;Start GCode end
G92 E0
G92 E0
G1 F1500 E-5
;LAYER_COUNT:174
;LAYER:0
M107
G0 F1440 X51.748 Y124.882 Z0.28
;TYPE:SKIRT
G1 F1500 E0
G1 F2400 X52.246 Y124.685 E0.03741
G1 X52.842 Y124.503 E0.08093
G1 X52.975 Y124.47 E0.0905
G1 X53.489 Y124.354 E0.12731
G1 X53.859 Y124.292 E0.15351
G1 X54.494 Y124.223 E0.19812
G1 X57.192 Y123.892 E0.38798
G1 X59.931 Y123.477 E0.58147
G1 X62.586 Y122.998 E0.76991
G1 X65.269 Y122.435 E0.96139
G1 X67.944 Y121.794 E1.15352
G1 X70.56 Y121.089 E1.34275
G1 X73.198 Y120.296 E1.53515
G1 X75.802 Y119.434 E1.72674
G1 X78.367 Y118.502 E1.91736
G1 X80.928 Y117.489 E2.10972
G1 X83.418 Y116.422 E2.29893
G1 X86.232 Y115.115 E2.51564
G1 X86.746 Y114.883 E2.55503
G1 X87.243 Y114.686 E2.59237
G1 X87.845 Y114.502 E2.63634
G1 X87.971 Y114.471 E2.6454
G1 X88.487 Y114.354 E2.68236
G1 X89.128 Y114.262 E2.72759
G1 X89.273 Y114.25 E2.73775
G1 X89.89 Y114.211 E2.78093
G1 X90.531 Y114.2 E2.82571
G1 X129.34 Y114.2 E5.53637
G1 X130.046 Y114.21 E5.58569
G1 X130.611 Y114.242 E5.62522
G1 X131.451 Y114.341 E5.68429
G1 X131.849 Y114.427 E5.71273
G1 X132.353 Y114.556 E5.74907
G1 X132.968 Y114.767 E5.79449
G1 X133.106 Y114.823 E5.80489
G1 X133.663 Y115.064 E5.84728
G1 X134.624 Y115.512 E5.92134
G1 X135.121 Y115.751 E5.95985
G1 X137.654 Y116.886 E6.15372
G1 X140.194 Y117.94 E6.3458
G1 X142.739 Y118.91 E6.53603
G1 X145.321 Y119.812 E6.72706
G1 X147.891 Y120.63 E6.91544
G1 X150.56 Y121.397 E7.10941
G1 X153.179 Y122.07 E7.29828
G1 X155.888 Y122.686 E7.49232
G1 X158.556 Y123.211 E7.68225
G1 X161.246 Y123.663 E7.87277
G1 X163.916 Y124.035 E8.06106
G1 X165.112 Y124.166 E8.14509
G1 X166.181 Y124.296 E8.22031
G1 X166.708 Y124.394 E8.25775
G1 X166.844 Y124.426 E8.26751
G1 X167.43 Y124.576 E8.30976
G1 X168.5 Y124.882 E8.38749
G1 X171.2 Y125.612 E8.58284
G1 X173.853 Y126.251 E8.77345
G1 X176.529 Y126.811 E8.9644
G1 X179.186 Y127.292 E9.153
G1 X181.936 Y127.71 E9.34728
G1 X184.636 Y128.043 E9.5373
G1 X187.329 Y128.298 E9.72624
G1 X190.076 Y128.48 E9.91852
G1 X192.818 Y128.582 E10.11017
G1 X195.567 Y128.609 E10.30219
G1 X198.277 Y128.558 E10.49151
G1 X200.99 Y128.429 E10.68122
G1 X203.76 Y128.22 E10.87524
G1 X206.464 Y127.938 E11.06513
G1 X209.155 Y127.582 E11.25472
G1 X211.865 Y127.144 E11.44646
G1 X214.554 Y126.631 E11.63767
G1 X217.217 Y126.043 E11.82815
G1 X219.894 Y125.375 E12.02086
G1 X222.514 Y124.64 E12.21092
G1 X225.115 Y123.831 E12.40118
G1 X227.721 Y122.938 E12.59359
G1 X230.285 Y121.979 E12.78479
G1 X232.798 Y120.956 E12.9743
G1 X234.817 Y120.073 E13.12821
G1 X235.256 Y119.879 E13.16174
G1 X235.743 Y119.686 E13.19833
G1 X236.345 Y119.502 E13.24229
G1 X236.471 Y119.471 E13.25136
G1 X236.987 Y119.354 E13.28831
G1 X237.628 Y119.262 E13.33354
G1 X237.773 Y119.25 E13.34371
G1 X238.39 Y119.211 E13.38689
G1 X239.031 Y119.2 E13.43166
G1 X240.84 Y119.2 E13.55802
G1 X241.546 Y119.21 E13.60733
G1 X242.111 Y119.242 E13.64686
G1 X242.951 Y119.341 E13.70594
G1 X243.349 Y119.427 E13.73438
G1 X243.853 Y119.556 E13.77071
G1 X244.468 Y119.767 E13.81613
G1 X244.606 Y119.823 E13.82653
G1 X245.079 Y120.027 E13.86251
G1 X245.612 Y120.308 E13.90459
G1 X245.74 Y120.385 E13.91503
G1 X246.202 Y120.678 E13.95324
G1 X246.687 Y121.041 E13.99555
G1 X246.803 Y121.138 E14.00611
G1 X247.221 Y121.506 E14.04501
G1 X247.62 Y121.916 E14.08497
G1 X247.714 Y122.025 E14.09502
G1 X248.083 Y122.47 E14.1354
G1 X248.438 Y122.973 E14.1784
G1 X248.521 Y123.106 E14.18935
G1 X248.794 Y123.569 E14.22689
G1 X249.058 Y124.109 E14.26888
G1 X249.115 Y124.244 E14.27911
G1 X249.313 Y124.743 E14.31661
G1 X249.497 Y125.342 E14.36038
G1 X249.529 Y125.47 E14.36959
G1 X249.646 Y125.985 E14.40648
G1 X249.738 Y126.629 E14.45192
G1 X249.75 Y126.769 E14.46173
G1 X249.789 Y127.39 E14.50519
G1 X249.8 Y128.006 E14.54822
G1 X249.8 Y221.84 E21.10218
G1 X249.79 Y222.545 E21.15143
G1 X249.759 Y223.105 E21.1906
G1 X249.66 Y223.948 E21.24988
G1 X249.577 Y224.329 E21.27712
G1 X249.448 Y224.837 E21.31373
G1 X249.24 Y225.451 E21.35901
G1 X249.178 Y225.606 E21.37067
G1 X248.969 Y226.089 E21.40743
G1 X248.69 Y226.617 E21.44914
G1 X248.619 Y226.733 E21.45864
G1 X248.327 Y227.196 E21.49687
G1 X247.947 Y227.702 E21.54107
G1 X247.86 Y227.805 E21.55049
G1 X247.486 Y228.229 E21.58998
G1 X247.078 Y228.625 E21.62969
G1 X246.974 Y228.716 E21.63934
G1 X246.526 Y229.087 E21.67997
G1 X246.034 Y229.434 E21.72202
G1 X245.893 Y229.522 E21.73363
G1 X245.424 Y229.798 E21.77164
G1 X244.887 Y230.06 E21.81337
G1 X244.756 Y230.116 E21.82332
G1 X244.26 Y230.313 E21.8606
G1 X243.652 Y230.499 E21.90501
G1 X243.529 Y230.529 E21.91385
G1 X243.013 Y230.646 E21.95081
G1 X242.372 Y230.738 E21.99604
G1 X242.227 Y230.75 E22.0062
G1 X241.61 Y230.789 E22.04938
G1 X240.969 Y230.8 E22.09416
G1 X239.16 Y230.8 E22.22051
G1 X238.454 Y230.79 E22.26983
G1 X237.889 Y230.758 E22.30935
G1 X237.049 Y230.659 E22.36843
G1 X236.656 Y230.574 E22.39651
G1 X236.07 Y230.424 E22.43876
G1 X234.994 Y230.116 E22.51694
G1 X232.3 Y229.388 E22.71185
G1 X229.647 Y228.749 E22.90245
G1 X226.971 Y228.189 E23.09341
G1 X224.314 Y227.708 E23.28201
G1 X221.564 Y227.29 E23.47629
G1 X218.864 Y226.957 E23.66631
G1 X216.171 Y226.702 E23.85524
G1 X213.424 Y226.52 E24.04753
G1 X210.682 Y226.418 E24.23918
G1 X207.933 Y226.391 E24.4312
G1 X205.223 Y226.442 E24.62052
G1 X202.51 Y226.571 E24.81022
G1 X199.74 Y226.78 E25.00425
G1 X197.036 Y227.062 E25.19414
G1 X194.345 Y227.418 E25.38373
G1 X191.635 Y227.856 E25.57547
G1 X188.946 Y228.369 E25.76667
G1 X186.283 Y228.957 E25.95715
G1 X183.606 Y229.625 E26.14987
G1 X180.986 Y230.36 E26.33993
G1 X178.385 Y231.169 E26.53018
G1 X175.779 Y232.062 E26.72259
G1 X173.215 Y233.021 E26.9138
G1 X170.702 Y234.044 E27.10331
G1 X168.683 Y234.927 E27.25722
G1 X168.244 Y235.121 E27.29074
G1 X167.757 Y235.314 E27.32733
G1 X167.155 Y235.498 E27.3713
G1 X167.029 Y235.529 E27.38036
G1 X166.513 Y235.646 E27.41732
G1 X165.872 Y235.738 E27.46255
G1 X165.727 Y235.75 E27.47271
G1 X165.11 Y235.789 E27.51589
G1 X164.469 Y235.8 E27.56067
G1 X55.66 Y235.8 E35.16058
G1 X54.954 Y235.79 E35.20989
G1 X54.389 Y235.758 E35.24942
G1 X53.549 Y235.659 E35.3085
G1 X53.151 Y235.573 E35.33694
G1 X52.647 Y235.444 E35.37327
G1 X52.032 Y235.233 E35.41869
G1 X51.886 Y235.174 E35.42969
G1 X51.412 Y234.968 E35.46578
G1 X50.893 Y234.694 E35.50678
G1 X50.764 Y234.617 E35.51727
G1 X50.302 Y234.325 E35.55544
G1 X49.813 Y233.959 E35.59811
G1 X49.698 Y233.862 E35.60861
G1 X49.273 Y233.488 E35.64816
G1 X48.866 Y233.069 E35.68895
G1 X48.422 Y232.536 E35.73741
G1 X48.068 Y232.037 E35.78014
G1 X47.981 Y231.897 E35.79165
G1 X47.715 Y231.447 E35.82816
G1 X47.447 Y230.903 E35.87052
G1 X47.382 Y230.75 E35.88213
G1 X47.18 Y230.239 E35.92051
G1 X47 Y229.651 E35.96346
G1 X46.968 Y229.52 E35.97288
G1 X46.852 Y229.003 E36.00989
G1 X46.762 Y228.373 E36.05434
G1 X46.75 Y228.226 E36.06464
G1 X46.709 Y227.569 E36.11062
G1 X46.7 Y226.927 E36.15547
G1 X46.7 Y133.16 E42.70474
G1 X46.71 Y132.454 E42.75406
G1 X46.742 Y131.891 E42.79344
G1 X46.841 Y131.049 E42.85266
G1 X46.927 Y130.652 E42.88103
G1 X47.055 Y130.151 E42.91715
G1 X47.266 Y129.533 E42.96276
G1 X47.324 Y129.392 E42.97341
G1 X47.524 Y128.929 E43.00864
G1 X47.798 Y128.406 E43.04988
G1 X47.884 Y128.262 E43.06159
G1 X48.179 Y127.796 E43.10011
G1 X48.549 Y127.303 E43.14317
G1 X48.64 Y127.195 E43.15303
G1 X49.014 Y126.771 E43.19252
G1 X49.422 Y126.375 E43.23223
G1 X49.525 Y126.286 E43.24174
G1 X49.964 Y125.922 E43.28157
G1 X50.463 Y125.568 E43.32431
G1 X50.606 Y125.479 E43.33607
G1 X51.076 Y125.202 E43.37418
G1 X51.614 Y124.939 E43.416
G1 X51.748 Y124.882 E43.42617
G1 F1500 E38.42617
;MESH:C:\Users\mokhw\AppData\Roaming\snapmaker-luban/Tmp/55053400_31164035.stl
G0 F1440 X53.737 Y128.623
G0 X60.754 Y134.417
;TYPE:WALL-INNER
G1 F1500 E43.42617
G1 F2400 X61.06 Y135.413 E43.49895
G1 X61.423 Y136 E43.54716
G1 X62.125 Y136.668 E43.61484
G1 X62.727 Y137.003 E43.66296
G1 X63.664 Y137.244 E43.73053
G1 X64.351 Y137.243 E43.77852
G1 X65.289 Y136.997 E43.84625
G1 X65.889 Y136.658 E43.89438
G1 X66.587 Y135.989 E43.96191
G1 X66.946 Y135.399 E44.01015
G1 X67.246 Y134.414 E44.08207
G1 X67.199 Y133.311 E44.15918
G1 X66.81 Y132.342 E44.23211
G1 X66.396 Y131.788 E44.28042
G1 X65.593 Y131.142 E44.3524
G1 X64.611 Y130.795 E44.42515
G1 X63.923 Y130.74 E44.47335
G1 X62.97 Y130.905 E44.54091
G1 X62.345 Y131.191 E44.58892
G1 X61.591 Y131.8 E44.65661
G1 X61.184 Y132.354 E44.70463
G1 X60.801 Y133.311 E44.77662
G1 X60.754 Y134.417 E44.85394
G0 F1440 X61.679 Y132.629
G0 X62.642 Y131.671
G0 X80.93 Y128.368
G0 X82.698 Y127.794
G0 X84.203 Y126.703
G0 X85.201 Y125.35
G0 X86.801 Y121.811
G1 F2400 X86.795 Y121.963 E44.86457
G1 X86.754 Y122.917 E44.93126
G1 X86.893 Y123.372 E44.96449
G1 X86.951 Y123.561 E44.9783
G1 X87.06 Y123.913 E45.00404
G1 X87.423 Y124.5 E45.05225
G1 X88.125 Y125.168 E45.11993
G1 X88.727 Y125.503 E45.16805
G1 X89.664 Y125.744 E45.23563
G1 X90.351 Y125.743 E45.28361
G1 X91.289 Y125.497 E45.35134
G1 X91.889 Y125.158 E45.39948
G1 X92.587 Y124.489 E45.467
G1 X92.946 Y123.899 E45.51524
G1 X93.246 Y122.914 E45.58716
G1 X93.199 Y121.811 E45.66427
G1 X92.81 Y120.842 E45.7372
G1 X92.396 Y120.288 E45.78551
G1 X91.593 Y119.642 E45.85749
G1 X91.449 Y119.591 E45.86816
G1 X90.611 Y119.295 E45.93024
G1 X90.036 Y119.249 E45.97053
G1 X89.923 Y119.24 E45.97845
G1 X89.499 Y119.313 E46.0085
G1 X88.97 Y119.405 E46.046
G1 X88.531 Y119.605 E46.07969
G1 X88.345 Y119.691 E46.09401
G1 X88.102 Y119.887 E46.11581
G1 X87.686 Y120.223 E46.15316
G1 X87.591 Y120.3 E46.1617
G1 X87.384 Y120.582 E46.18614
G1 X87.184 Y120.854 E46.20972
G1 X87.117 Y121.022 E46.22235
G1 X86.919 Y121.516 E46.25952
G1 X86.801 Y121.811 E46.28172
G0 F1440 X88.642 Y120.171
G0 X89.795 Y119.832
G0 X131.593 Y119.642
G1 F2400 X131.493 Y119.607 E46.28912
G1 X130.992 Y119.43 E46.32623
G1 X130.611 Y119.295 E46.35446
G1 X130.529 Y119.289 E46.3602
G1 X129.923 Y119.24 E46.40267
G1 X128.97 Y119.405 E46.47022
G1 X128.564 Y119.591 E46.50141
G1 X128.345 Y119.691 E46.51823
G1 X127.591 Y120.3 E46.58593
G1 X127.184 Y120.854 E46.63394
G1 X126.801 Y121.811 E46.70594
G1 X126.754 Y122.917 E46.78326
G1 X127.06 Y123.913 E46.85603
G1 X127.423 Y124.5 E46.90424
G1 X128.125 Y125.168 E46.97192
G1 X128.727 Y125.503 E47.02004
G1 X129.664 Y125.744 E47.08762
G1 X130.351 Y125.743 E47.1356
G1 X131.289 Y125.497 E47.20333
G1 X131.889 Y125.158 E47.25147
G1 X132.587 Y124.489 E47.319
G1 X132.946 Y123.899 E47.36724
G1 X133.049 Y123.563 E47.39178
G1 X133.106 Y123.374 E47.40557
G1 X133.246 Y122.914 E47.43916
G1 X133.206 Y121.964 E47.50557
G1 X133.199 Y121.811 E47.51627
G1 X133.081 Y121.517 E47.53839
G1 X132.883 Y121.023 E47.57557
G1 X132.81 Y120.842 E47.5892
G1 X132.618 Y120.585 E47.6116
G1 X132.396 Y120.288 E47.6375
G1 X132.316 Y120.223 E47.6447
G1 X131.9 Y119.889 E47.68197
G1 X131.593 Y119.642 E47.70949
G0 F1440 X135.399 Y127.101
